assets/img/main/logo.svg

<svg width="74" height="74" viewBox="0 0 74 74" fill="none" xmlns="http://www.w3.org/2000/svg">
<path d="M5.60921 18.7256L36.6429 0.808289L67.6765 18.7256V54.5601L36.6429 72.4774L5.60921 54.5601V18.7256Z" stroke="white" stroke-width="1.4"/>
<path d="M6.12165 54.2643L36.6429 1.4L67.1641 54.2643H6.12165Z" stroke="white" stroke-width="1.4"/>
<path d="M67.1635 19.0214L36.6423 71.8856L6.1211 19.0214L67.1635 19.0214Z" stroke="white" stroke-width="1.4"/>
<line x1="5.61562" y1="18.2038" x2="67.3904" y2="53.8696" stroke="white" stroke-width="1.4"/>
<line x1="36.8543" y1="0.977051" x2="36.8543" y2="72.3085" stroke="white" stroke-width="1.4"/>
<line x1="67.393" y1="19.4163" x2="5.61815" y2="55.082" stroke="white" stroke-width="1.4"/>
<path d="M20.8407 27.5202L36.6422 18.3972L52.4437 27.5202V45.7662L36.6422 54.8891L20.8407 45.7661V27.5202Z" fill="#2644A6" stroke="white" stroke-width="1.4"/>
</svg>

<svg width="74" height="74" fill="none" xmlns="http://www.w3.org/2000/svg"><path d="M5.61 18.726L36.642.808l31.034 17.918V54.56L36.643 72.477 5.609 54.56V18.726z" stroke="#fff" stroke-width="1.4"/><path d="M6.122 54.264L36.642 1.4l30.522 52.864H6.122z" stroke="#fff" stroke-width="1.4"/><path d="M67.163 19.021l-30.52 52.865L6.12 19.02h61.042zM5.616 18.204L67.39 53.87M36.854.977v71.331M67.393 19.416L5.618 55.082" stroke="#fff" stroke-width="1.4"/><path d="M20.84 27.52l15.802-9.123 15.802 9.123v18.246L36.642 54.89l-15.801-9.123V27.52z" fill="#2644A6" stroke="#fff" stroke-width="1.4"/></svg>
